!!!OTL: EN GROFSMID SAT IN GODER ROO
!!!ARE: Europa, Mitteleuropa, Deutschland, Westfalen, Muenster
!!!SCT: E1698
!!!YEM: Copyright 1995, estate of Helmut Schaffrath.
**kern
*ICvox
*Ivox
*M2/4
*k[f#]
*G:
{8d
=1
8d
8d
8d
8g
=2
8f#
8e
8d}
{8d
=3
8g
8dd
8b
8b
=4
8b
8a
8a}
{8a
=5
8b
8g
8d
8b
=6
8a
8f#
8d}
{8d
=7
8.g
16f#
8g
8b
=8
4.dd}
{8cc
=9
8b
8b
8a
8a
=10
4.g}
==
!!!AGN: Staende -, Studenten - Lied
!!!ONB: ESAC (Essen Associative Code) Database: ERK3
!!!AMT: simple duple
!!!AIN: vox
!!!EED: Helmut Schaffrath
!!!EEV: 1.0
*-
